!!!OTL: Das hungernde Kind 'Mutter, ach Mutter, es hungert mich,
!!!ARE: Europa, Mitteleuropa, Deutschland / France, Lothringen, Kr. Forbach,
!!    Weiler
!!!YOR: 5, S. 273
!!    1928 aufgezeichnet
!!!SCT: Q0115
!!!YEM: Copyright 1995, estate of Helmut Schaffrath.
**kern
*ICvox
*Ivox
*M4/4
*k[f#]
*G:
=1
{8b
8b
4b
8dd
8dd
4dd
=2
4cc
4a
2a}
=3
{4cc
4cc
4b
4a
=4
4g
4e
2d}
=5
{4d
4g
4g
4e
=6
4f#
4g
2a}
=7
{4cc
4cc
8b
8b
4g
=8
8a
8a
4f#
2g}
=9
{4d
4g
4g
4g
=10
4f#
4a
2a}
=11
{4b
4b
4dd
4dd
=12
4cc
4f#
2g}
==
!!!AGN: Ballade, Hunger, Tod
!!!ONB: ESAC (Essen Associative Code) Database: BALLADE
!!!AMT: simple quadruple
!!!AIN: vox
!!!EED: Helmut Schaffrath
!!!EEV: 1.0
*-
